svg/color/hodl.svg

<svg height="32" viewBox="0 0 32 32" width="32" xmlns="http://www.w3.org/2000/svg"><g fill="none"><circle cx="16" cy="16" fill="#d59143" r="16"/><path d="m.97287611 11.4534956c-.51769912.4111725-.9806416 1.1437168-.95674779 2.2629425.01652655.7739601.43267699 1.3036061.95674779 1.6640044v1.3820575c.00000339.8632408.42099874 1.6722355 1.12798672 2.1675664l4.85303098 3.3186504v-16.95783184l-5.9810177 1.74862831zm1.30300885-.4081859c1.00692477.7367257 1.00692477 5.1154646 1.00692477 5.1154646s-1.13853982-.1101106-2.07995575-.6361725c.77654867.261438 1.39918142.2036947 1.67037611.2329646l.01772124.001792h.00418141l.01433629.0013938.03703539.0035841.0131416.0011947h.01035398.00318584s.15929204-3.821416-.99736726-4.4918363c-.18816371-.0651106-.51988938-.0264823-.88606194.0905973.46612832-.3146017.95276548-.4209292 1.18612832-.3189823zm5.09734513 6.903916h3.26250001v4.306261h-3.26190267zm-.73931416-12.97951331-5.66103982 1.62099557v-6.07061946c0-.45418142.54915929-.68176992.87033185-.36079646l5.07942478 5.10013274zm.7399115 6.07042031h3.26190267v6.493739h-3.26190267zm3.99225667-6.07042031-.2096682.2104646 5.0003761-5.02088495c.3211726-.32117257.870531-.09378319.870531.36059734v6.07081858zm-3.99225667.32137168h3.26190267v5.32971243h-3.26190267zm9.65329647 6.16241153v-4.41398233l-5.9714602-1.7458407v16.96181413l4.8434735-3.3252212c.7069879-.4953308 1.1279833-1.3043256 1.1279867-2.1675664v-1.3822566c.5240708-.3605974.9402212-.8900443.9567478-1.6640044.0238938-1.1194248-.4386505-1.85177-.9567478-2.2629425zm-1.9606858 4.3735619h.0031858.010354l.0119469-.0011947.017323-.0015929h.0035841l.0356416-.0035841h.001792l.0153318-.0015929c.0398231-.0041814.0896018-.0099557.1491372-.0175221h.0067699c.3267478-.0418142.7263717-.0376327 1.3402434-.230177.0452655-.0142035.090531-.028938.1357964-.0442035-.9414159.5258628-2.0799557.6361725-2.0799557.6361725s0-4.3781416 1.0069248-5.1154646c.2333628-.1019469.7198009.0043806 1.1857301.3207744-.3661726-.1172788-.6969027-.155708-.886062-.0905974-1.1568584.6688275-.9577433 4.5489823-.9577433 4.5489823z" fill="#fff" transform="translate(7 5)"/></g></svg>

<?xml version="1.0" encoding="UTF-8"?>
<svg width="32px" height="32px" viewBox="0 0 32 32" version="1.1" xmlns="http://www.w3.org/2000/svg" xmlns:xlink="http://www.w3.org/1999/xlink">
    <!-- Generator: Sketch 50 (54983) - http://www.bohemiancoding.com/sketch -->
    <title>color/hodl</title>
    <desc>Created with Sketch.</desc>
    <defs></defs>
    <g id="color/hodl" stroke="none" stroke-width="1" fill="none" fill-rule="evenodd">
        <g id="Group" fill="#D59143" fill-rule="nonzero">
            <circle id="Oval" cx="16" cy="16" r="16"></circle>
        </g>
        <g id="HOdlcoin-(HODL)" transform="translate(7.000000, 5.000000)" fill="#FFFFFF" fill-rule="nonzero">
            <path d="M0.972876106,11.4534956 C0.455176991,11.8646681 -0.00776548673,12.5972124 0.0161283186,13.7164381 C0.0326548673,14.4903982 0.44880531,15.0200442 0.972876106,15.3804425 L0.972876106,16.7625 C0.972879504,17.6257408 1.39387485,18.4347355 2.10086283,18.9300664 L6.95389381,22.2487168 L6.95389381,5.29088496 L0.972876106,7.03951327 L0.972876106,11.4534956 Z M2.27588496,11.0453097 C3.28280973,11.7820354 3.28280973,16.1607743 3.28280973,16.1607743 C3.28280973,16.1607743 2.14426991,16.0506637 1.20285398,15.5246018 C1.97940265,15.7860398 2.6020354,15.7282965 2.87323009,15.7575664 L2.89095133,15.7593584 L2.89513274,15.7593584 L2.90946903,15.7607522 L2.94650442,15.7643363 L2.95964602,15.765531 L2.97,15.765531 L2.97318584,15.765531 C2.97318584,15.765531 3.13247788,11.944115 1.97581858,11.2736947 C1.78765487,11.2085841 1.4559292,11.2472124 1.08975664,11.364292 C1.55588496,11.0496903 2.04252212,10.9433628 2.27588496,11.0453097 Z M7.37323009,17.9492257 L10.6357301,17.9492257 L10.6357301,22.2554867 L7.37382743,22.2554867 L7.37323009,17.9492257 Z M6.63391593,4.96971239 L0.972876106,6.59070796 L0.972876106,0.520088496 C0.972876106,0.0659070796 1.5220354,-0.161681416 1.84320796,0.159292035 L6.92263274,5.25942478 L6.63391593,4.96971239 Z M7.37382743,11.0401327 L10.6357301,11.0401327 L10.6357301,17.5338717 L7.37382743,17.5338717 L7.37382743,11.0401327 Z M11.3660841,4.96971239 L11.1564159,5.18017699 L16.156792,0.159292035 C16.4779646,-0.161880531 17.027323,0.0655088496 17.027323,0.519889381 L17.027323,6.59070796 L11.3660841,4.96971239 Z M7.37382743,5.29108407 L10.6357301,5.29108407 L10.6357301,10.6207965 L7.37382743,10.6207965 L7.37382743,5.29108407 Z M17.0271239,11.4534956 L17.0271239,7.03951327 L11.0556637,5.29367257 L11.0556637,22.2554867 L15.8991372,18.9302655 C16.6061251,18.4349347 17.0271205,17.6259399 17.0271239,16.7626991 L17.0271239,15.3804425 C17.5511947,15.0198451 17.9673451,14.4903982 17.9838717,13.7164381 C18.0077655,12.5970133 17.5452212,11.8646681 17.0271239,11.4534956 Z M15.0664381,15.8270575 L15.0696239,15.8270575 L15.0799779,15.8270575 L15.0919248,15.8258628 L15.1092478,15.8242699 L15.1128319,15.8242699 L15.1484735,15.8206858 L15.1502655,15.8206858 L15.1655973,15.8190929 C15.2054204,15.8149115 15.2551991,15.8091372 15.3147345,15.8015708 L15.3215044,15.8015708 C15.6482522,15.7597566 16.0478761,15.7639381 16.6617478,15.5713938 C16.7070133,15.5571903 16.7522788,15.5424558 16.7975442,15.5271903 C15.8561283,16.0530531 14.7175885,16.1633628 14.7175885,16.1633628 C14.7175885,16.1633628 14.7175885,11.7852212 15.7245133,11.0478982 C15.9578761,10.9459513 16.4443142,11.0522788 16.9102434,11.3686726 C16.5440708,11.2513938 16.2133407,11.2129646 16.0241814,11.2780752 C14.867323,11.9469027 15.0664381,15.8270575 15.0664381,15.8270575 Z" id="Shape"></path>
        </g>
    </g>
</svg>
